!!! OTL: Da\,Yian^,Jing- (Big eyes)
!!! YEC: Copyright 2001, Chia-wei Lee
!! For Voice Only
!! [Andante]
**kern	**silbe
*clefG2	*LXinhua
*A-:	*ping-ying
*M3/4	*
=3	=3
4cc	Chu-
4ff	Qu\
8ff	Na\
8ee-	Ge\
=4	=4
8ff	Da\
(8ee-	Men/
8cc	|
8ee-	|
[3cc	|
=5	=5
2.cc])	|
=6	=6
4cc	Xiang\
4ff	Shu\
4ee-	Shang\
=7	=7
(8ff	Kan\
8ee-)	|
4cc	Ia
4r	.
=8	=8
4cc	Xi^
4ff	Quie\
4ee-	Er/
=9	=9
(8ff	Pan/
8ee-)	|
(8cc	Wo-
8ee-	|
8cc	|
8b-)	|
=10	=10
(8cc	Zhe
8ee-)	|
[2cc	Li
=11	=11
2.cc]	|
*-	*-
